X: 40343
T: Tom Byrne's
R: reel
M: 4/4
K: Cmajor
|:cd|e2ce decA|GE E/D/E DECA,|G,A,CE AGEA|GAce decd|
egce d2cA|GE E/D/E DECA,|G,A,CE AGEA|GEDE C2:|
|:cd|egga gecd|egga g2 ed|eaab ageg|1 aege decd|
egga gecd|egga g2 eg|aege decA|GEDE C2:|
[2 aege dece|agea gedf|edce decA|GAce decA|GEDE C2|

